src/topics/icons/chef.svg

<svg height="274" preserveAspectRatio="xMidYMid" viewBox="0 0 256 274" width="256" xmlns="http://www.w3.org/2000/svg"><g fill="#435363" transform="translate(0 208.213333)"><path d="m0 34.0445867v-.1706667c0-17.02912 12.8341333-30.976 31.232-30.976 11.2981333 0 18.0565333 3.76832 23.6168533 9.2398933l-8.38656 9.6699734c-4.6216533-4.1915734-9.32864-6.7584-15.31904-6.7584-10.09664 0-17.3704533 8.38656-17.3704533 18.65728v.1706666c0 10.27072 7.1031467 18.8279467 17.3704533 18.8279467 6.8471467 0 11.03872-2.7409067 15.7457067-7.0178133l8.38656 8.4718933c-6.1576533 6.58432-13.0013867 10.6939733-24.55552 10.6939733-17.6264533 0-30.72-13.6055466-30.72-30.8087466"/><path d="m72.52992 3.92533333h13.1754667v23.70218667h24.3029333v-23.70218667h13.182293v59.90058667h-13.182293v-24.0469333h-24.3029333v24.0469333h-13.1754667z"/><path d="m144.390827 3.9424h45.90592v11.90912h-32.60416v12.3426133h28.689066v11.9125334h-28.689066v12.77952h33.037653v11.90912h-46.339413z"/><path d="m209.92 3.92533333h45.605547v11.98079997h-32.433494v12.7488h28.583254v11.9808h-28.583254v23.1901867h-13.172053z"/></g><g transform="translate(40.96)"><path d="m88.6272 127.668907c-21.8589867 0-39.6458667-17.783467-39.6458667-39.6424537 0-21.8624 17.78688-39.64928 39.6458667-39.64928 18.046293 0 33.30048 12.1207467 38.08256 28.6446934h15.33952c-5.106347-24.8183467-27.11552-43.5370667-53.42208-43.5370667-30.0714667 0-54.53824 24.4667733-54.53824 54.5416533 0 30.0714667 24.4667733 54.5382397 54.53824 54.5382397 26.30656 0 48.315733-18.715306 53.42208-43.533653h-15.33952c-4.78208 16.520533-20.036267 28.637867-38.08256 28.637867" fill="#435363"/><path d="m61.9008 114.74944c6.8471467 6.847147 16.30208 11.08992 26.7264 11.08992v-15.807147c-6.0757333 0-11.5780267-2.46784-15.5613867-6.447786z" fill="#435363"/><path d="m50.8142933 88.02304c0 5.4101333 1.1537067 10.55744 3.2085334 15.21664l14.45888-6.35904c-1.1946667-2.7101867-1.86368-5.70368-1.86368-8.8576 0-12.15488 9.8542933-22.00576 22.00576-22.00576v-15.8071467c-20.84864 0-37.8094934 16.9642667-37.8094934 37.8129067" fill="#f38b00"/><path d="m102.335147 52.7872-5.7344003 14.73536c4.6830933 1.8261333 8.5913603 5.1950933 11.0762663 9.4958933h17.12128c-3.3792-11.0967466-11.73504-20.0430933-22.463146-24.2312533" fill="#435363"/><path d="m96.6075733 108.52352 5.7309867 14.73536c10.728107-4.18816 19.083947-13.13792 22.46656-24.2346667h-17.12128c-2.491733 4.3042137-6.396587 7.6765867-11.0762667 9.4993067" fill="#f38b00"/><path d="m18.6709333 109.175467c-.2491733-.826027-.4881066-1.65888-.7099733-2.49856-.0136533-.0512-.0273067-.1024-.04096-.1536-.2048-.77824-.3925333-1.55648-.57344-2.341547-.0375467-.160427-.07168-.320853-.1058133-.48128-.1501867-.672427-.28672-1.35168-.41984-2.030933-.0580267-.303787-.1092267-.607574-.1604267-.91136-.0955733-.54272-.1911467-1.082027-.27648-1.6315737-.07168-.4676266-.13312-.93184-.19456-1.3994666-.43008-3.1880534-.6621867-6.4273067-.6587733-9.70752h-14.93333337c-.00341333 3.5771733.22186667 7.1099733.64170667 10.5984.00682667.0750933.02048.1501866.03072.22528.11605333.9489066.24576 1.8978133.39253333 2.8364803.04096.259413.08533334.518826.12970667.781653.12970667.771413.26282667 1.542827.41301333 2.310827.07509334.4096.16384.812373.24917334 1.21856.12629333.610986.256 1.221973.39594666 1.829546.12288.53248.256 1.06496.39253334 1.59744.11946666.474454.23552.948907.36181333 1.42336.17066667.628054.35157333 1.24928.53248 1.87392.07509333.259414.14336.525654.22186667.781654h.00682666c1.03082667 3.40992 2.2528 6.73792 3.67274667 9.960106l13.6840533-6.017706c-1.1776-2.669227-2.1947733-5.434027-3.05152-8.26368z" fill="#435363"/><path d="m88.6272 161.122987c-20.15232 0-38.42048-8.205654-51.6539733-21.44256l-10.57792 10.57792c15.9300266 15.930026 37.9255466 25.79456 62.2318933 25.79456 44.888747 0 81.923413-33.600854 87.340373-77.021867h-15.069866c-5.3248 35.099307-35.703467 62.091947-72.270507 62.091947" fill="#f38b00"/><path d="m88.6272 14.92992c16.37376 0 31.49824 5.4101333 43.697493 14.5408l8.946347-11.99104c-14.68416-10.97728-32.904533-17.47968-52.64384-17.47968-37.3521067 0-69.2667733 23.26528-82.04629333 56.0981333l13.92981333 5.4203734c10.6325333-27.2418134 37.1575467-46.5885867 68.11648-46.5885867" fill="#f38b00"/><path d="m160.897707 77.0218667h15.069866c-1.614506-12.9536-6.045013-25.0333867-12.660053-35.6078934l-12.690773 7.9189334c5.18144 8.2705066 8.7552 17.6469333 10.28096 27.68896" fill="#435363"/><path d="m143.919787 77.0218667h15.121066c-3.945813-25.35424-21.30944-46.3189334-44.578133-55.4018134l-5.399893 13.88544c17.69472 6.9085867 31.0784 22.49728 34.85696 41.5163734" fill="#f38b00"/><path d="m88.6272 31.65184.0034133-14.88896h-.0034133c-30.1841067 0-56.0401067 18.86208-66.4098133 45.4212267l13.8752 5.3998933c8.2056533-21.0090667 28.6583466-35.93216 52.5346133-35.93216" fill="#435363"/><path d="m32.256 88.02304h-14.88896c0 29.945173 18.5719467 55.62368 44.8 66.1504l5.5296-13.820587c-20.7496533-8.328533-35.44064-28.64128-35.44064-52.329813" fill="#f38b00"/><path d="m88.6272 144.39424v14.892373c35.55328 0 65.10592-26.17344 70.413653-60.2623997h-15.12448c-5.13024 25.8389337-27.968853 45.3700267-55.289173 45.3700267" fill="#435363"/></g></svg>

<?xml version="1.0" encoding="UTF-8" standalone="no" ?>
<svg width="256px" height="274px" viewBox="0 0 256 274" version="1.1" xmlns="http://www.w3.org/2000/svg" xmlns:xlink="http://www.w3.org/1999/xlink" preserveAspectRatio="xMidYMid">
    <g>
        <g transform="translate(0.000000, 208.213333)" fill="#435363">
            <path d="M0,34.0445867 L0,33.87392 C0,16.8448 12.8341333,2.89792 31.232,2.89792 C42.5301333,2.89792 49.2885333,6.66624 54.8488533,12.1378133 L46.4622933,21.8077867 C41.84064,17.6162133 37.1336533,15.0493867 31.1432533,15.0493867 C21.0466133,15.0493867 13.7728,23.4359467 13.7728,33.7066667 L13.7728,33.8773333 C13.7728,44.1480533 20.8759467,52.70528 31.1432533,52.70528 C37.9904,52.70528 42.1819733,49.9643733 46.88896,45.6874667 L55.27552,54.15936 C49.1178667,60.74368 42.2741333,64.8533333 30.72,64.8533333 C13.0935467,64.8533333 0,51.2477867 0,34.0445867"></path>
            <path d="M72.52992,3.92533333 L85.7053867,3.92533333 L85.7053867,27.62752 L110.00832,27.62752 L110.00832,3.92533333 L123.190613,3.92533333 L123.190613,63.82592 L110.00832,63.82592 L110.00832,39.7789867 L85.7053867,39.7789867 L85.7053867,63.82592 L72.52992,63.82592 L72.52992,3.92533333 Z"></path>
            <path d="M144.390827,3.9424 L190.296747,3.9424 L190.296747,15.85152 L157.692587,15.85152 L157.692587,28.1941333 L186.381653,28.1941333 L186.381653,40.1066667 L157.692587,40.1066667 L157.692587,52.8861867 L190.73024,52.8861867 L190.73024,64.7953067 L144.390827,64.7953067 L144.390827,3.9424 Z"></path>
            <path d="M209.92,3.92533333 L255.525547,3.92533333 L255.525547,15.9061333 L223.092053,15.9061333 L223.092053,28.6549333 L251.675307,28.6549333 L251.675307,40.6357333 L223.092053,40.6357333 L223.092053,63.82592 L209.92,63.82592 L209.92,3.92533333 Z"></path>
        </g>
        <g transform="translate(40.960000, 0.000000)">
            <path d="M88.6272,127.668907 C66.7682133,127.668907 48.9813333,109.88544 48.9813333,88.0264533 C48.9813333,66.1640533 66.7682133,48.3771733 88.6272,48.3771733 C106.673493,48.3771733 121.92768,60.49792 126.70976,77.0218667 L142.04928,77.0218667 C136.942933,52.20352 114.93376,33.4848 88.6272,33.4848 C58.5557333,33.4848 34.08896,57.9515733 34.08896,88.0264533 C34.08896,118.09792 58.5557333,142.564693 88.6272,142.564693 C114.93376,142.564693 136.942933,123.849387 142.04928,99.03104 L126.70976,99.03104 C121.92768,115.551573 106.673493,127.668907 88.6272,127.668907" fill="#435363"></path>
            <path d="M61.9008,114.74944 C68.7479467,121.596587 78.20288,125.83936 88.6272,125.83936 L88.6272,110.032213 C82.5514667,110.032213 77.0491733,107.564373 73.0658133,103.584427 L61.9008,114.74944 L61.9008,114.74944 Z" fill="#435363"></path>
            <path d="M50.8142933,88.02304 C50.8142933,93.4331733 51.968,98.58048 54.0228267,103.23968 L68.4817067,96.88064 C67.28704,94.1704533 66.6180267,91.17696 66.6180267,88.02304 C66.6180267,75.86816 76.47232,66.01728 88.6237867,66.01728 L88.6237867,50.2101333 C67.7751467,50.2101333 50.8142933,67.1744 50.8142933,88.02304" fill="#F38B00"></path>
            <path d="M102.335147,52.7872 L96.6007467,67.52256 C101.28384,69.3486933 105.192107,72.7176533 107.677013,77.0184533 L124.798293,77.0184533 C121.419093,65.9217067 113.063253,56.97536 102.335147,52.7872" fill="#435363"></path>
            <path d="M96.6075733,108.52352 L102.33856,123.25888 C113.066667,119.07072 121.422507,110.12096 124.80512,99.0242133 L107.68384,99.0242133 C105.192107,103.328427 101.287253,106.7008 96.6075733,108.52352" fill="#F38B00"></path>
            <path d="M18.6709333,109.175467 C18.42176,108.34944 18.1828267,107.516587 17.96096,106.676907 C17.9473067,106.625707 17.9336533,106.574507 17.92,106.523307 C17.7152,105.745067 17.5274667,104.966827 17.34656,104.18176 C17.3090133,104.021333 17.27488,103.860907 17.2407467,103.70048 C17.09056,103.028053 16.9540267,102.3488 16.8209067,101.669547 C16.76288,101.36576 16.71168,101.061973 16.66048,100.758187 C16.5649067,100.215467 16.4693333,99.67616 16.384,99.1266133 C16.31232,98.6589867 16.25088,98.1947733 16.18944,97.7271467 C15.75936,94.5390933 15.5272533,91.29984 15.5306667,88.0196267 L0.597333333,88.0196267 C0.59392,91.5968 0.8192,95.1296 1.23904,98.6180267 L1.23904,98.6180267 C1.24586667,98.69312 1.25952,98.7682133 1.26976,98.8433067 C1.38581333,99.7922133 1.51552,100.74112 1.66229333,101.679787 C1.70325333,101.9392 1.74762667,102.198613 1.792,102.46144 C1.92170667,103.232853 2.05482667,104.004267 2.20501333,104.772267 C2.28010667,105.181867 2.36885333,105.58464 2.45418667,105.990827 C2.58048,106.601813 2.71018667,107.2128 2.85013333,107.820373 C2.97301333,108.352853 3.10613333,108.885333 3.24266667,109.417813 C3.36213333,109.892267 3.47818667,110.36672 3.60448,110.841173 C3.77514667,111.469227 3.95605333,112.090453 4.13696,112.715093 C4.21205333,112.974507 4.28032,113.240747 4.35882667,113.496747 L4.36565333,113.496747 C5.39648,116.906667 6.61845333,120.234667 8.0384,123.456853 L21.7224533,117.439147 C20.5448533,114.76992 19.52768,112.00512 18.6709333,109.175467 L18.6709333,109.175467 Z" fill="#435363"></path>
            <path d="M88.6272,161.122987 C68.47488,161.122987 50.20672,152.917333 36.9732267,139.680427 L26.3953067,150.258347 C42.3253333,166.188373 64.3208533,176.052907 88.6272,176.052907 C133.515947,176.052907 170.550613,142.452053 175.967573,99.03104 L160.897707,99.03104 C155.572907,134.130347 125.19424,161.122987 88.6272,161.122987" fill="#F38B00"></path>
            <path d="M88.6272,14.92992 C105.00096,14.92992 120.12544,20.3400533 132.324693,29.47072 L141.27104,17.47968 C126.58688,6.5024 108.366507,0 88.6272,0 C51.2750933,0 19.3604267,23.26528 6.58090667,56.0981333 L20.51072,61.5185067 C31.1432533,34.2766933 57.6682667,14.92992 88.6272,14.92992" fill="#F38B00"></path>
            <path d="M160.897707,77.0218667 L175.967573,77.0218667 C174.353067,64.0682667 169.92256,51.98848 163.30752,41.4139733 L150.616747,49.3329067 C155.798187,57.6034133 159.371947,66.97984 160.897707,77.0218667" fill="#435363"></path>
            <path d="M143.919787,77.0218667 L159.040853,77.0218667 C155.09504,51.6676267 137.731413,30.7029333 114.46272,21.6200533 L109.062827,35.5054933 C126.757547,42.41408 140.141227,58.0027733 143.919787,77.0218667" fill="#F38B00"></path>
            <path d="M88.6272,31.65184 L88.6272,31.65184 L88.6306133,16.76288 L88.6272,16.76288 C58.4430933,16.76288 32.5870933,35.62496 22.2173867,62.1841067 L36.0925867,67.584 C44.29824,46.5749333 64.7509333,31.65184 88.6272,31.65184" fill="#435363"></path>
            <path d="M32.256,88.02304 L32.256,88.02304 L17.36704,88.02304 C17.36704,117.968213 35.9389867,143.64672 62.16704,154.17344 L67.69664,140.352853 C46.9469867,132.02432 32.256,111.711573 32.256,88.02304" fill="#F38B00"></path>
            <path d="M88.6272,144.39424 L88.6272,159.286613 C124.18048,159.286613 153.73312,133.113173 159.040853,99.0242133 L143.916373,99.0242133 C138.786133,124.863147 115.94752,144.39424 88.6272,144.39424" fill="#435363"></path>
        </g>
    </g>
</svg>
